images/icons/toxic.svg

<?xml version="1.0" encoding="UTF-8"?>
<svg width="18px" height="19px" viewBox="0 0 18 19" version="1.1" xmlns="http://www.w3.org/2000/svg" xmlns:xlink="http://www.w3.org/1999/xlink">
    <title>Icon/Big/Toxic</title>
    <g id="desktop" stroke="none" stroke-width="1" fill="none" fill-rule="evenodd">
        <g id="d.-results" transform="translate(-614.000000, -1791.000000)" fill="#6E6E6E">
            <g id="triostar" transform="translate(502.000000, 1584.000000)">
                <g id="Icon/Big/Toxic" transform="translate(112.000000, 207.000000)">
                    <path d="M10.4940257,3.45568587e-15 C14.5494257,3.45568587e-15 17.8488257,3.2994 17.8488257,7.35505714 L17.8488257,8.07531429 C17.8488257,11.0142 16.11414,13.6419429 13.4143971,14.8176 L13.4143971,16.3823143 C13.4143971,17.4134571 12.5755971,18.252 11.5447114,18.252 L6.30414,18.252 C5.27299714,18.252 4.43445429,17.4134571 4.43445429,16.3823143 L4.43445429,14.8176 C1.73471143,13.6419429 2.57142857e-05,11.0142 2.57142857e-05,8.07531429 L2.57142857e-05,7.35505714 C2.57142857e-05,3.2994 3.29942571,3.45568587e-15 7.35482571,3.45568587e-15 L10.4940257,3.45568587e-15 Z M10.4940257,0.514285714 L7.35482571,0.514285714 C3.58305429,0.514285714 0.514311429,3.58302857 0.514311429,7.35505714 L0.514311429,8.07531429 C0.514311429,10.8619714 2.19216857,13.3480286 4.78879714,14.409 C4.88548286,14.4483429 4.94874,14.5427143 4.94874,14.6471143 L4.94874,16.3823143 C4.94874,17.1295714 5.55662571,17.7377143 6.30414,17.7377143 L6.85302571,17.737 L6.85321714,15.9856714 C6.85321714,15.8434714 6.96841714,15.7285286 7.11036,15.7285286 C7.25230286,15.7285286 7.36750286,15.8434714 7.36750286,15.9856714 L7.36702571,17.737 L10.0780257,17.737 L10.0781743,15.9856714 C10.0781743,15.8434714 10.1933743,15.7285286 10.3353171,15.7285286 C10.47726,15.7285286 10.59246,15.8434714 10.59246,15.9856714 L10.5920257,17.737 L11.5447114,17.7377143 C12.2919686,17.7377143 12.9001114,17.1295714 12.9001114,16.3823143 L12.9001114,14.6471143 C12.9001114,14.5427143 12.9633686,14.4483429 13.0600543,14.409 C15.6566829,13.3480286 17.33454,10.8619714 17.33454,8.07531429 L17.33454,7.35505714 C17.33454,3.58302857 14.2657971,0.514285714 10.4940257,0.514285714 Z M5.49781714,7.25626286 C6.75113143,7.25626286 7.77044571,8.27583429 7.77044571,9.52914857 C7.77044571,10.7824629 6.75113143,11.8020343 5.49781714,11.8020343 C4.24450286,11.8020343 3.22493143,10.7824629 3.22493143,9.52914857 C3.22493143,8.27583429 4.24450286,7.25626286 5.49781714,7.25626286 Z M12.3510086,7.25626286 C13.6043229,7.25626286 14.6236371,8.27583429 14.6236371,9.52914857 C14.6236371,10.7824629 13.6043229,11.8020343 12.3510086,11.8020343 C11.0976943,11.8020343 10.0781229,10.7824629 10.0781229,9.52914857 C10.0781229,8.27583429 11.0976943,7.25626286 12.3510086,7.25626286 Z M5.49781714,7.77054857 C4.52813143,7.77054857 3.73921714,8.55946286 3.73921714,9.52914857 C3.73921714,10.4985771 4.52813143,11.2877486 5.49781714,11.2877486 C6.46750286,11.2877486 7.25616,10.4985771 7.25616,9.52914857 C7.25616,8.55946286 6.46750286,7.77054857 5.49781714,7.77054857 Z M12.3510086,7.77054857 C11.3813229,7.77054857 10.5924086,8.55946286 10.5924086,9.52914857 C10.5924086,10.4985771 11.3813229,11.2877486 12.3510086,11.2877486 C13.3206943,11.2877486 14.1093514,10.4985771 14.1093514,9.52914857 C14.1093514,8.55946286 13.3206943,7.77054857 12.3510086,7.77054857 Z" id="Combined-Shape"></path>
                </g>
            </g>
        </g>
    </g>
</svg>

<svg width="18" height="19" xmlns="http://www.w3.org/2000/svg"><path d="M10.494 0c4.055 0 7.355 3.3 7.355 7.355v.72a7.337 7.337 0 01-4.435 6.743v1.564c0 1.031-.838 1.87-1.87 1.87h-5.24a1.872 1.872 0 01-1.87-1.87v-1.564A7.337 7.337 0 010 8.075v-.72C0 3.3 3.3 0 7.355 0h3.139zm0 .514h-3.14a6.848 6.848 0 00-6.84 6.841v.72A6.827 6.827 0 004.79 14.41c.096.04.16.134.16.238v1.735c0 .748.608 1.356 1.355 1.356l.549-.001v-1.751a.257.257 0 11.515 0l-.001 1.751h2.711v-1.751a.257.257 0 11.514 0v1.751h.953c.747 0 1.355-.607 1.355-1.355v-1.735c0-.104.063-.199.16-.238a6.827 6.827 0 004.275-6.334v-.72a6.848 6.848 0 00-6.841-6.84zM5.498 7.256A2.275 2.275 0 017.77 9.53a2.275 2.275 0 01-2.272 2.273 2.275 2.275 0 01-2.273-2.273 2.275 2.275 0 012.273-2.273zm6.853 0a2.275 2.275 0 012.273 2.273 2.275 2.275 0 01-2.273 2.273 2.275 2.275 0 01-2.273-2.273 2.275 2.275 0 012.273-2.273zm-6.853.515a1.76 1.76 0 00-1.759 1.758c0 .97.79 1.759 1.759 1.759.97 0 1.758-.79 1.758-1.759a1.76 1.76 0 00-1.758-1.758zm6.853 0a1.76 1.76 0 00-1.759 1.758c0 .97.79 1.759 1.759 1.759.97 0 1.758-.79 1.758-1.759a1.76 1.76 0 00-1.758-1.758z" fill="#6E6E6E" fill-rule="evenodd"/></svg>
